gama.ui.shared/icons_svg/dark/navigator/files/folder.resources.svg

<svg height="21" viewBox="-542.997 -3503.861 21 21" width="21" xmlns="http://www.w3.org/2000/svg"><g fill="none"><path d="m-542.49693-3503.3614h20v20h-20z"/><path d="m-540.39696-3496.4724 7.2-.2 8-.2 1.4 2.2-.8 10.2h-15.8z" fill="#666566"/><path d="m-528.49693-3496.371h-8v12.0096h8zm1 0v12.0096h1.5c.82843 0 1.5-.6716 1.5-1.5v-9.0096c0-.8284-.67157-1.5-1.5-1.5zm-10 0h-1.5c-.82843 0-1.5.6716-1.5 1.5v9.0096c0 .8284.67157 1.5 1.5 1.5h1.5zm2-1v-.5c0-.8284.67157-1.5 1.5-1.5h3c.82843 0 1.5.6716 1.5 1.5v.5h3.5c1.38073 0 2.5 1.1193 2.5 2.5v9.0096c0 1.3807-1.11927 2.5-2.5 2.5h-13c-1.38071 0-2.5-1.1193-2.5-2.5v-9.0096c0-1.3807 1.11929-2.5 2.5-2.5zm5 0v-.5c0-.276-.22387-.5-.5-.5h-3c-.27617 0-.5.224-.5.5v.5z" fill="#fff"/></g></svg>

<?xml version="1.0" encoding="UTF-8" standalone="no"?>
<!DOCTYPE svg PUBLIC "-//W3C//DTD SVG 1.1//EN" "http://www.w3.org/Graphics/SVG/1.1/DTD/svg11.dtd">
<svg xmlns="http://www.w3.org/2000/svg" xmlns:xl="http://www.w3.org/1999/xlink" version="1.1" xmlns:dc="http://purl.org/dc/elements/1.1/" viewBox="-542.99693 -3503.8614 21 21" width="21" height="21">
  <defs/>
  <g id="SOURCES" stroke-opacity="1" fill="none" stroke="none" fill-opacity="1" stroke-dasharray="none">
    <title>SOURCES</title>
    <g id="SOURCES_Dark">
      <title>Dark</title>
      <g id="Graphic_11664">
        <rect x="-542.49693" y="-3503.3614" width="20" height="20" stroke="gray" stroke-opacity="0" stroke-linecap="round" stroke-linejoin="round" stroke-width=".25"/>
      </g>
      <g id="Graphic_11663">
        <path d="M -540.39696 -3496.4724 L -533.19696 -3496.6724 L -525.19696 -3496.8724 L -523.79696 -3494.6724 L -524.59696 -3484.4724 L -540.39696 -3484.4724 Z" fill="#666566"/>
      </g>
      <g id="Graphic_11662">
        <path d="M -528.49693 -3496.371 L -536.49693 -3496.371 L -536.49693 -3484.3614 L -528.49693 -3484.3614 Z M -527.49693 -3496.371 L -527.49693 -3484.3614 L -525.99693 -3484.3614 C -525.1685 -3484.3614 -524.49693 -3485.033 -524.49693 -3485.8614 L -524.49693 -3494.871 C -524.49693 -3495.6994 -525.1685 -3496.371 -525.99693 -3496.371 Z M -537.49693 -3496.371 L -538.99693 -3496.371 C -539.82536 -3496.371 -540.49693 -3495.6994 -540.49693 -3494.871 L -540.49693 -3485.8614 C -540.49693 -3485.033 -539.82536 -3484.3614 -538.99693 -3484.3614 L -537.49693 -3484.3614 Z M -535.49693 -3497.371 L -535.49693 -3497.871 C -535.49693 -3498.6994 -534.82536 -3499.371 -533.99693 -3499.371 L -530.99693 -3499.371 C -530.1685 -3499.371 -529.49693 -3498.6994 -529.49693 -3497.871 L -529.49693 -3497.371 L -525.99693 -3497.371 C -524.6162 -3497.371 -523.49693 -3496.2517 -523.49693 -3494.871 L -523.49693 -3485.8614 C -523.49693 -3484.4807 -524.6162 -3483.3614 -525.99693 -3483.3614 L -538.99693 -3483.3614 C -540.37764 -3483.3614 -541.49693 -3484.4807 -541.49693 -3485.8614 L -541.49693 -3494.871 C -541.49693 -3496.2517 -540.37764 -3497.371 -538.99693 -3497.371 Z M -530.49693 -3497.371 L -530.49693 -3497.871 C -530.49693 -3498.147 -530.7208 -3498.371 -530.99693 -3498.371 L -533.99693 -3498.371 C -534.2731 -3498.371 -534.49693 -3498.147 -534.49693 -3497.871 L -534.49693 -3497.371 Z" fill="white"/>
      </g>
    </g>
  </g>
</svg>
